svg/azure-storage-container.svg

<?xml version="1.0" encoding="UTF-8"?>
<svg xmlns="http://www.w3.org/2000/svg" xmlns:xlink="http://www.w3.org/1999/xlink" width="32" height="32" viewBox="0 0 32 32">
<defs>
<linearGradient id="linear-pattern-0" gradientUnits="userSpaceOnUse" x1="9" y1="15.799" x2="9" y2="5.316" gradientTransform="matrix(1.777778, 0.00266842, -0.00266842, 1.777778, 0, 0)">
<stop offset="0" stop-color="rgb(19.607843%, 74.509804%, 86.666667%)" stop-opacity="1"/>
<stop offset="0.775" stop-color="rgb(19.607843%, 83.137255%, 96.078431%)" stop-opacity="1"/>
</linearGradient>
</defs>
<path fill-rule="nonzero" fill="url(#linear-pattern-0)" d="M 0.96875 9.449219 L 31.03125 9.449219 L 31.03125 27.082031 C 31.03125 27.347656 30.921875 27.605469 30.734375 27.792969 C 30.546875 27.980469 30.292969 28.085938 30.027344 28.085938 L 1.972656 28.085938 C 1.417969 28.085938 0.96875 27.636719 0.96875 27.082031 Z M 0.96875 9.449219 "/>
<path fill-rule="nonzero" fill="rgb(0%, 47.058824%, 83.137255%)" fill-opacity="1" d="M 1.976562 3.910156 L 30.023438 3.910156 C 30.578125 3.910156 31.027344 4.359375 31.027344 4.914062 L 31.027344 9.449219 L 0.972656 9.449219 L 0.972656 4.917969 C 0.972656 4.363281 1.421875 3.914062 1.976562 3.910156 "/>
<path fill-rule="nonzero" fill="rgb(96.862745%, 55.294118%, 11.764706%)" fill-opacity="1" d="M 24.050781 13.0625 L 16.683594 13.0625 C 16.605469 13.0625 16.527344 13.039062 16.460938 12.996094 L 14.359375 11.597656 C 14.296875 11.550781 14.21875 11.527344 14.140625 11.527344 L 7.949219 11.527344 C 7.84375 11.527344 7.746094 11.570312 7.671875 11.644531 C 7.597656 11.71875 7.554688 11.816406 7.554688 11.921875 L 7.554688 24.929688 C 7.554688 25.148438 7.730469 25.324219 7.949219 25.324219 L 24.050781 25.324219 C 24.15625 25.324219 24.253906 25.28125 24.328125 25.207031 C 24.402344 25.132812 24.445312 25.035156 24.445312 24.929688 L 24.445312 13.457031 C 24.445312 13.355469 24.402344 13.253906 24.332031 13.179688 C 24.257812 13.105469 24.15625 13.0625 24.050781 13.0625 "/>
<path fill-rule="nonzero" fill="rgb(100%, 100%, 100%)" fill-opacity="1" d="M 9.253906 12.285156 L 12.769531 12.285156 C 12.855469 12.285156 12.929688 12.355469 12.929688 12.445312 L 12.929688 12.890625 C 12.929688 12.980469 12.859375 13.050781 12.769531 13.050781 L 9.253906 13.050781 C 9.210938 13.050781 9.167969 13.035156 9.136719 13.003906 C 9.105469 12.976562 9.089844 12.933594 9.089844 12.890625 L 9.089844 12.445312 C 9.089844 12.355469 9.164062 12.285156 9.253906 12.285156 M 9.253906 12.285156 "/>
<path fill-rule="nonzero" fill="rgb(81.960784%, 34.901961%, 0%)" fill-opacity="1" d="M 9.203125 12.285156 L 9.75 12.285156 C 9.8125 12.285156 9.859375 12.335938 9.859375 12.394531 L 9.859375 12.941406 C 9.859375 12.96875 9.847656 13 9.828125 13.019531 C 9.804688 13.039062 9.777344 13.050781 9.75 13.050781 L 9.203125 13.050781 C 9.175781 13.050781 9.148438 13.039062 9.125 13.019531 C 9.101562 13 9.089844 12.972656 9.089844 12.941406 L 9.089844 12.394531 C 9.089844 12.332031 9.140625 12.285156 9.203125 12.285156 M 9.203125 12.285156 "/>
<path fill-rule="nonzero" fill="rgb(100%, 100%, 100%)" fill-opacity="1" d="M 24.050781 13.042969 L 15.960938 13.042969 C 15.855469 13.042969 15.753906 13.082031 15.679688 13.15625 L 14.378906 14.457031 C 14.304688 14.53125 14.203125 14.574219 14.097656 14.574219 L 7.949219 14.574219 C 7.84375 14.570312 7.742188 14.613281 7.671875 14.6875 C 7.597656 14.761719 7.554688 14.859375 7.554688 14.964844 L 7.554688 24.90625 C 7.554688 25.125 7.730469 25.300781 7.949219 25.300781 L 24.050781 25.300781 C 24.269531 25.300781 24.445312 25.125 24.445312 24.90625 L 24.445312 13.4375 C 24.445312 13.332031 24.402344 13.230469 24.328125 13.15625 C 24.253906 13.085938 24.15625 13.042969 24.050781 13.042969 "/>
</svg>

<svg role="img" viewBox="0 0 32 32" height="32" width="32" xmlns="http://www.w3.org/2000/svg"><defs><linearGradient gradientTransform="rotate(.086)scale(1.77778)" gradientUnits="userSpaceOnUse" id="427__426__272__271__1__0__276__275__271__270__1__0__185__184__81__80__159__158__1__0__azure-storage-container_svg__svg/azure-storage-container.svg319__svg/azure-storage-container.svg317__azure-storage-container-lp-0" x1="9" x2="9" y1="15.799" y2="5.316"><stop offset="0" stop-color="rgb(19.607843%, 74.509804%, 86.666667%)"/><stop offset=".775" stop-color="rgb(19.607843%, 83.137255%, 96.078431%)"/></linearGradient></defs><path d="M.969 9.45H31.03v17.632c0 .266-.11.523-.297.711a1 1 0 0 1-.707.293H1.973c-.555 0-1.004-.45-1.004-1.004Zm0 0" fill="url(#427__426__272__271__1__0__276__275__271__270__1__0__185__184__81__80__159__158__1__0__azure-storage-container_svg__svg/azure-storage-container.svg319__svg/azure-storage-container.svg317__azure-storage-container-lp-0)"/><path d="M1.977 3.91h28.046c.555 0 1.004.45 1.004 1.004V9.45H.973V4.918A1.01 1.01 0 0 1 1.977 3.91" fill="rgb(0%, 47.058824%, 83.137255%)"/><path d="M24.05 13.063h-7.366a.413.413 0 0 1-.223-.067l-2.102-1.398a.365.365 0 0 0-.218-.07H7.949a.39.39 0 0 0-.277.117.39.39 0 0 0-.117.277V24.93c0 .218.175.394.394.394h16.102a.39.39 0 0 0 .277-.117.39.39 0 0 0 .117-.277V13.457a.41.41 0 0 0-.113-.277.4.4 0 0 0-.281-.117" fill="rgb(96.862745%, 55.294118%, 11.764706%)"/><path d="M9.254 12.285h3.516c.085 0 .16.07.16.16v.446c0 .09-.07.16-.16.16H9.254a.165.165 0 0 1-.117-.047.15.15 0 0 1-.047-.113v-.446c0-.09.074-.16.164-.16m0 0" fill="rgb(100%, 100%, 100%)"/><path d="M9.203 12.285h.547c.063 0 .11.05.11.11v.546a.116.116 0 0 1-.032.079.124.124 0 0 1-.078.03h-.547a.124.124 0 0 1-.078-.03.098.098 0 0 1-.035-.079v-.546c0-.063.05-.11.113-.11m0 0" fill="rgb(81.960784%, 34.901961%, 0%)"/><path d="M24.05 13.043h-8.09a.396.396 0 0 0-.28.113l-1.301 1.301a.4.4 0 0 1-.281.117H7.949a.365.365 0 0 0-.277.114.39.39 0 0 0-.117.277v9.941c0 .219.175.395.394.395h16.102a.393.393 0 0 0 .394-.395V13.438a.4.4 0 0 0-.117-.282.403.403 0 0 0-.277-.113" fill="rgb(100%, 100%, 100%)"/></svg>
